blockchains/elrond/assets/CRU-a5f4aa/logo.svg

<svg fill="none" height="238" viewBox="0 0 238 238" width="238" xmlns="http://www.w3.org/2000/svg"><circle cx="119.564" cy="118.436" fill="#2c2c2c" r="117.308"/><path d="m65.4293 78.726 61.5337-35.7982c2.124-1.2371 4.735-1.2371 6.858 0l38.756 22.5433c3.897 2.2582 4.598 7.6388 1.422 10.8592l-13.133 13.3139c-2.182 2.219-5.592 2.6706-8.281 1.0997l-18.705-10.8789c-2.163-1.2568-4.832-1.2568-6.995 0l-64.885 38.135v-33.2847c0-2.4742 1.3055-4.7521 3.4293-5.9893z" fill="#fa8c16"/><path d="m172.585 173.557-38.867 22.519c-2.121 1.232-4.729 1.232-6.831 0l-61.4616-35.635c-2.1214-1.232-3.4254-3.499-3.4254-5.943v-30.064l31.6651-18.434v30.123c0 2.463 1.304 4.731 3.4254 5.943l29.7965 17.28c2.122 1.232 4.73 1.232 6.831 0l18.859-10.927c2.686-1.564 6.073-1.114 8.252 1.094l13.157 13.215c3.192 3.206 2.491 8.562-1.401 10.829z" fill="#fff"/></svg>

<svg width="238" height="238" viewBox="0 0 238 238" fill="none" xmlns="http://www.w3.org/2000/svg">
<circle cx="119.564" cy="118.436" r="117.308" fill="#2C2C2C"/>
<path d="M65.4293 78.726L126.963 42.9278C129.087 41.6907 131.698 41.6907 133.821 42.9278L172.577 65.4711C176.474 67.7293 177.175 73.1099 173.999 76.3303L160.866 89.6442C158.684 91.8632 155.274 92.3148 152.585 90.7439L133.88 79.865C131.717 78.6082 129.048 78.6082 126.885 79.865L62 118V84.7153C62 82.2411 63.3055 79.9632 65.4293 78.726Z" fill="#FA8C16"/>
<path d="M172.585 173.557L133.718 196.076C131.597 197.308 128.989 197.308 126.887 196.076L65.4254 160.441C63.304 159.209 62 156.942 62 154.498V124.434L93.6651 106V136.123C93.6651 138.586 94.9691 140.854 97.0905 142.066L126.887 159.346C129.009 160.578 131.617 160.578 133.718 159.346L152.577 148.419C155.263 146.855 158.65 147.305 160.829 149.513L173.986 162.728C177.178 165.934 176.477 171.29 172.585 173.557Z" fill="white"/>
</svg>
